X:39
T:Isbrytaren
R:sl\"angpolska
C:Byss-Kalle (1783-1855)
A:Uppland
Z:id:hn-sp-39
M:3/4
L:1/16
K:G
dB|G2dB G2bg d2gd|B2dB G2Bd cBAG|FGAB c2ed cBAF|GFGB AGFE D2dB|
G2dB G2bg d2gd|B2dB G2Bd cBAG|FGAB c2ed cBAG|FGAF G6:|
B2|d2Bd g4 B2d2|:d2cd edcB A3B|cBcd e2e2 A3B|cdcB dcBA G2B2|
d2Bd g4 B2d2|d2cd edcB A2c2|B2d2 g2b2 a3g|1 fgaf g6G2|G2Bd g4 B2d2:|2 fgaf g6||
|:g2|fgaf efge gfed|^cdec d2AF D2FA|GBdg gece edBd|dcAc c2Bd g3g|
gece edBd dcAc|BAGF G6d2|BGBd BGBd edcB|AFAc AFAc dcBA|
GBdg gece edBd|dcAc c2Bd g3g|gece edBd dcAc|BAGF G6:|
<end>
<start>
